<?xml version="1.0" encoding="UTF-8"?>
<map version="1.10" tiledversion="1.10.2" orientation="orthogonal" renderorder="right-down" width="19" height="13" tilewidth="32" tileheight="32" infinite="0" nextlayerid="11" nextobjectid="1">
 <editorsettings>
  <export target="cabp_office.json" format="json"/>
 </editorsettings>
 <tileset firstgid="1" name="office_tileset" tilewidth="32" tileheight="32" tilecount="256" columns="16">
  <image source="tilesets/office_tiles.png" width="512" height="512"/>
 </tileset>
 <layer id="9" name="limits" width="19" height="13" locked="1">
  <data encoding="csv">
113,114,115,115,115,115,115,115,115,115,115,115,115,115,115,115,115,181,0,
129,130,0,0,0,0,0,0,0,0,0,0,0,0,0,0,163,148,0,
129,0,0,0,0,0,0,0,0,0,0,0,0,0,0,0,0,148,0,
129,0,0,0,0,0,0,0,0,0,0,0,0,0,0,0,0,148,0,
129,0,0,0,0,0,0,0,0,0,0,0,0,0,0,0,0,148,0,
129,0,0,0,0,0,0,0,0,0,0,0,0,0,0,0,0,148,0,
129,0,0,0,0,0,0,0,0,0,0,0,0,0,0,0,0,148,0,
129,0,0,0,0,0,0,0,0,0,0,0,0,0,0,0,0,148,0,
129,0,0,0,0,0,0,0,0,0,0,0,0,0,0,0,0,148,0,
129,0,0,0,0,0,0,0,0,0,0,0,0,0,0,0,0,148,0,
161,162,0,0,0,0,0,0,0,0,0,0,0,0,0,0,0,148,0,
177,178,178,178,178,178,178,178,178,178,178,178,178,178,178,179,163,180,0,
0,0,0,0,0,0,0,0,0,0,0,0,0,0,0,195,178,196,0
</data>
 </layer>
 <layer id="10" name="floor" width="19" height="13" locked="1">
  <data encoding="csv">
0,0,0,0,0,0,0,0,0,0,0,0,0,0,0,0,0,0,0,
0,0,0,0,0,0,0,0,0,0,0,0,0,0,0,0,0,0,0,
0,0,0,0,0,0,0,0,0,0,0,0,0,0,0,0,0,0,0,
0,30,30,30,30,30,30,30,30,30,30,30,30,30,30,30,0,0,0,
0,30,30,30,30,30,30,30,30,30,30,30,30,30,30,30,0,0,0,
0,30,30,30,30,30,30,30,30,30,30,30,30,30,30,30,0,0,0,
0,30,30,30,30,30,30,30,30,30,30,30,30,30,30,30,0,0,0,
0,30,30,30,30,30,30,30,30,30,30,30,30,30,30,30,0,0,0,
0,30,30,30,30,30,30,30,30,30,30,30,30,30,30,30,0,0,0,
0,30,30,30,30,30,30,30,30,30,30,30,30,30,30,30,0,0,0,
0,30,30,30,30,30,30,30,30,30,30,30,30,30,30,30,0,0,0,
0,0,0,0,0,0,0,0,0,0,0,0,0,0,0,0,0,0,0,
0,0,0,0,0,0,0,0,0,0,0,0,0,0,0,0,0,0,0
</data>
 </layer>
 <layer id="1" name="walls" width="19" height="13" locked="1">
  <data encoding="csv">
0,0,0,0,0,0,0,0,0,0,0,0,0,0,0,0,0,0,0,
0,42,42,42,42,42,42,42,42,42,42,42,42,42,42,42,28,0,0,
0,58,58,58,58,58,58,58,58,58,58,58,58,58,58,58,27,0,0,
0,0,0,0,0,0,0,0,0,0,0,0,0,0,0,0,27,0,0,
0,0,0,0,0,0,0,0,0,0,0,0,0,0,0,0,27,0,0,
0,0,0,0,0,0,0,0,0,0,0,0,0,0,0,0,27,0,0,
0,0,0,0,0,0,0,0,0,0,0,0,0,0,0,0,27,0,0,
0,0,0,0,0,0,0,0,0,0,0,0,0,0,0,0,27,0,0,
0,0,0,0,0,0,0,0,0,0,0,0,0,0,0,0,27,0,0,
0,0,0,0,0,0,0,0,0,0,0,0,0,0,0,0,27,0,0,
0,0,0,0,0,0,0,0,0,0,0,0,0,0,0,0,27,0,0,
0,0,0,0,0,0,0,0,0,0,0,0,0,0,0,0,29,0,0,
0,0,0,0,0,0,0,0,0,0,0,0,0,0,0,0,0,0,0
</data>
 </layer>
 <layer id="7" name="exit" width="19" height="13" locked="1">
  <data encoding="csv">
0,0,0,0,0,0,0,0,0,0,0,0,0,0,0,0,0,0,0,
0,0,0,0,0,0,0,0,0,0,0,0,0,0,0,0,0,0,0,
0,0,0,0,0,0,0,0,0,0,0,0,0,0,0,0,0,0,0,
0,0,0,0,0,0,0,0,0,0,0,0,0,0,0,0,0,0,0,
0,0,0,0,0,0,0,0,0,0,0,0,0,0,0,0,0,0,0,
0,0,0,0,0,0,0,0,0,0,0,0,0,0,0,0,0,0,0,
0,0,0,0,0,0,0,0,0,0,0,0,0,0,0,0,0,0,0,
0,0,0,0,0,0,0,0,0,0,0,0,0,0,0,0,0,0,0,
0,0,0,0,0,0,0,0,0,0,0,0,0,0,0,0,0,0,0,
0,0,0,149,150,150,151,0,0,0,0,0,0,0,0,0,0,0,0,
0,0,0,163,163,163,167,0,0,0,0,0,0,0,0,0,0,0,0,
0,0,0,0,0,0,0,0,0,0,0,0,0,0,0,0,0,0,0,
0,0,0,0,0,0,0,0,0,0,0,0,0,0,0,0,0,0,0
</data>
 </layer>
 <layer id="3" name="forniture" width="19" height="13" locked="1">
  <data encoding="csv">
0,0,0,0,0,0,0,0,0,0,0,0,0,0,0,0,0,0,0,
0,0,10,0,34,34,34,0,16,0,1,2,3,0,38,0,0,0,0,
0,19,26,0,11,13,12,0,32,17,45,0,11,13,12,17,0,0,0,
0,0,0,0,15,14,15,0,48,33,61,0,15,14,15,33,0,0,0,
0,0,0,0,0,0,0,0,0,0,0,0,0,0,0,0,0,0,0,
0,0,0,0,0,0,0,0,0,0,0,0,0,0,0,0,0,0,0,
0,0,0,0,0,0,0,0,0,0,0,0,0,0,0,0,0,0,0,
0,0,0,0,0,0,0,0,44,0,0,0,0,0,4,5,0,0,0,
0,0,0,0,18,8,0,46,47,0,0,0,0,0,20,21,0,0,0,
0,0,0,40,41,0,0,0,0,0,0,0,0,0,0,0,0,0,0,
0,0,0,56,57,0,0,22,23,23,22,23,24,23,23,24,0,0,0,
0,0,0,0,0,0,0,0,0,0,0,0,0,0,0,0,0,0,0,
0,0,0,0,0,0,0,0,0,0,0,0,0,0,0,0,0,0,0
</data>
 </layer>
 <layer id="4" name="assets" width="19" height="13" locked="1">
  <data encoding="csv">
0,0,0,0,0,0,0,0,0,0,0,0,0,0,0,0,0,0,0,
0,0,0,0,0,0,0,0,0,0,0,0,0,0,0,0,0,0,0,
0,0,0,0,31,35,64,0,0,0,0,0,9,36,37,0,0,0,0,
0,0,0,0,0,0,0,0,0,0,0,0,0,0,0,0,0,0,0,
0,0,0,0,0,0,0,0,0,0,0,0,0,0,0,0,0,0,0,
0,0,0,0,0,0,0,0,0,0,0,0,0,0,0,0,0,0,0,
0,0,0,0,0,0,0,0,0,0,0,0,0,0,0,0,0,0,0,
0,0,0,0,0,0,0,0,0,0,0,0,0,0,0,0,0,0,0,
0,0,0,0,0,0,0,0,39,0,0,0,0,0,0,0,0,0,0,
0,0,0,0,0,0,0,0,0,0,0,0,0,0,0,0,0,0,0,
0,0,0,0,0,0,0,0,0,0,0,0,0,0,0,0,0,0,0,
0,0,0,0,0,0,0,0,0,0,0,0,0,0,0,0,0,0,0,
0,0,0,0,0,0,0,0,0,0,0,0,0,0,0,0,0,0,0
</data>
 </layer>
</map>
